dist/img/services-item-4.svg

<svg width="90" height="90" viewBox="0 0 90 90" fill="none" xmlns="http://www.w3.org/2000/svg">
<g clip-path="url(#clip0_21_569)">
<path d="M69.3713 34.3134C69.3713 31.7187 67.2604 29.6078 64.6657 29.6078C62.0711 29.6078 59.9603 31.7187 59.9603 34.3134C59.9603 36.908 62.0711 39.019 64.6657 39.019C67.2604 39.0192 69.3713 36.9082 69.3713 34.3134ZM62.6082 34.3134C62.6082 33.1788 63.5313 32.2558 64.6657 32.2558C65.8004 32.2558 66.7234 33.1788 66.7234 34.3134C66.7234 35.448 65.8003 36.371 64.6657 36.371C63.5311 36.3712 62.6082 35.4481 62.6082 34.3134Z" fill="#0779FF"/>
<path d="M85.2997 66.5093H83.5081L83.3079 60.6301C84.799 58.6367 90.9386 49.6947 89.8777 38.897C89.5449 35.5096 88.6202 32.6501 87.1293 30.3983C85.8766 28.5062 84.2345 27.1155 82.5054 26.4821C82.3919 26.4405 82.277 26.4075 82.1613 26.3819C82.1363 26.3474 82.1094 26.3139 82.0807 26.2814C78.8217 22.6186 74.1428 20.5177 69.2431 20.5177H51.2804V18.015C51.2804 16.2848 49.8728 14.8773 48.1428 14.8773H45.9967V1.66419C45.9967 0.933 45.4039 0.34021 44.6727 0.34021C43.9413 0.34021 43.3487 0.933 43.3487 1.66419V14.8772H41.2026C39.4725 14.8772 38.065 16.2848 38.065 18.0148V20.5175H28.3251C27.5937 20.5175 27.0011 21.1103 27.0011 21.8415C27.0011 22.5727 27.5937 23.1655 28.3251 23.1655H39.389H49.9566H69.2431C73.0866 23.1655 76.7692 24.6949 79.4826 27.3886C78.9975 28.0428 78.8403 28.8875 79.077 29.6902V29.6904C79.2256 30.1942 79.4242 30.7619 79.6539 31.4192C80.4691 33.7504 81.5857 36.9432 81.2397 39.6882C80.3679 46.601 76.6716 49.5116 74.5191 50.6391C74.4639 49.6334 74.365 48.326 74.1897 46.9516C74.1221 46.4209 74.0481 45.9295 73.9699 45.4687C74.4939 45.6705 75.0621 45.7824 75.6563 45.7824C78.251 45.7824 80.3619 43.6715 80.3619 41.0768C80.3619 38.4822 78.251 36.3712 75.6563 36.3712C73.7438 36.3712 72.0952 37.5188 71.3599 39.1611C71.3222 39.1313 71.2874 39.105 71.2565 39.0817C70.4861 38.4988 69.5888 38.3242 68.662 38.5764C67.0588 39.0126 65.0708 40.8343 63.9195 51.135C63.9165 51.1611 63.9139 51.1871 63.911 51.2132C61.4596 50.2476 59.3262 48.6408 57.7037 46.5237C57.453 46.1967 57.0646 46.005 56.6528 46.005H34.8325C34.4207 46.005 34.0321 46.1967 33.7816 46.5237C31.8507 49.0433 29.1639 50.8513 26.1412 51.692C26.1216 51.5066 26.1017 51.3209 26.0808 51.135C25.7754 48.402 25.4109 46.2659 25.0105 44.5942C25.0153 44.5483 25.0181 44.5015 25.0181 44.4544V41.4023H29.9862C30.7176 41.4023 31.3102 40.8095 31.3102 40.0784V35.312C31.3102 34.5808 30.7176 33.988 29.9862 33.988H25.0179V29.4759C25.0179 28.7447 24.4253 28.1519 23.694 28.1519H18.9276C18.1963 28.1519 17.6037 28.7447 17.6037 29.4759V33.988H12.6357C11.9044 33.988 11.3117 34.5808 11.3117 35.312V40.0784C11.3117 40.8095 11.9044 41.4023 12.6357 41.4023H17.1147C16.6304 42.5644 16.1482 44.3061 15.8108 46.9516C15.6355 48.3259 15.5368 49.6329 15.4814 50.6384C13.3261 49.5097 9.63205 46.5985 8.76087 39.6882C8.41469 36.9432 9.53125 33.7504 10.3465 31.4192C10.5763 30.7619 10.7749 30.1942 10.9235 29.6902C11.0402 29.2944 11.0602 28.8884 10.9935 28.4999C13.7664 25.1017 17.8277 23.1656 22.2425 23.1656H23.0291C23.7605 23.1656 24.3531 22.5729 24.3531 21.8417C24.3531 21.1105 23.7605 20.5177 23.0291 20.5177H22.2425C17.2624 20.5177 12.4971 22.7187 9.25162 26.4602C8.69255 26.2691 8.0754 26.2696 7.49532 26.4823C5.76602 27.1157 4.12376 28.5064 2.87127 30.3985C1.38029 32.6505 0.455623 35.5099 0.122862 38.8972C-0.938088 49.6949 5.20148 58.6367 6.69263 60.6303L6.49245 66.5094H4.70031C2.93588 66.5094 1.50051 67.9448 1.50051 69.7092V73.0488C1.50051 74.8133 2.93588 76.2486 4.70031 76.2486H5.91184V88.3359C5.91184 89.0671 6.50445 89.6599 7.23582 89.6599H25.449C26.1804 89.6599 26.773 89.0671 26.773 88.3359V76.2486H28.9498C30.0496 76.2486 31.0211 75.6908 31.5974 74.8433C32.1147 75.1056 32.6988 75.2546 33.3174 75.2546H37.537C38.4887 75.2546 39.3595 74.9035 40.0285 74.325C40.6976 74.9035 41.5684 75.2546 42.5201 75.2546H46.7395C47.6914 75.2546 48.562 74.9035 49.2311 74.325C49.9001 74.9035 50.771 75.2546 51.7226 75.2546H55.9426C56.7894 75.2546 57.5723 74.9769 58.2061 74.5084C58.7378 75.54 59.8118 76.2486 61.0502 76.2486H63.227V88.3359C63.227 89.0671 63.8196 89.6599 64.551 89.6599H82.7642C83.4955 89.6599 84.0882 89.0671 84.0882 88.3359V76.2486H85.2997C87.0641 76.2486 88.4995 74.8133 88.4995 73.0488V69.7092C88.4995 67.9448 87.0641 66.5093 85.2997 66.5093ZM40.7126 20.5175V18.015C40.7126 17.7449 40.9322 17.5253 41.2023 17.5253H48.1424C48.4125 17.5253 48.6321 17.7451 48.6321 18.015V20.5177L40.7126 20.5175ZM80.3466 29.3156L81.6151 28.935C81.6153 28.9368 81.6153 28.9391 81.6153 28.9414L80.3466 29.3156ZM75.6562 39.0192C76.7909 39.0192 77.7138 39.9422 77.7138 41.0768C77.7138 42.2114 76.7909 43.1345 75.6562 43.1345C74.5214 43.1345 73.5985 42.2114 73.5985 41.0768C73.5985 39.9422 74.5214 39.0192 75.6562 39.0192ZM65.8748 61.8806C65.8794 61.6201 65.9773 56.5586 66.5507 51.4289C67.6373 41.7081 69.3397 41.136 69.3567 41.1314C69.4779 41.0984 69.5385 41.1024 69.6584 41.1931C71.0072 42.2133 71.8934 47.8973 71.9411 52.5785C71.9451 52.9819 72.133 53.3616 72.4512 53.6094C72.7694 53.8575 73.1835 53.9464 73.5752 53.8525C73.9352 53.7657 82.4067 51.5951 83.8666 40.0196C84.2905 36.6568 83.0551 33.1243 82.1532 30.545C81.9415 29.9397 81.7579 29.4147 81.6282 28.9813C85.1632 30.3038 86.8618 35.2834 87.2422 39.1562C88.3141 50.0661 81.0118 59.2763 80.9387 59.3668C80.7383 59.6145 80.6342 59.9261 80.6449 60.2444L80.8583 66.5093H65.8748V61.8806ZM35.47 48.6528H56.0148C58.0361 51.0939 60.6585 52.9084 63.6473 53.9373C63.2902 58.2033 63.2277 61.8045 63.227 61.848C63.2268 61.855 63.2268 61.8623 63.2268 61.8695V66.5094H61.05C59.8116 66.5094 58.7376 67.2178 58.2059 68.2497C57.5722 67.7812 56.7893 67.5035 55.9424 67.5035H51.7228C50.7711 67.5035 49.9003 67.8546 49.2313 68.4331C48.5622 67.8546 47.6914 67.5035 46.7397 67.5035H42.5203C41.5684 67.5035 40.6978 67.8546 40.0287 68.4331C39.3597 67.8546 38.4888 67.5035 37.5372 67.5035H33.3175C32.699 67.5035 32.1148 67.6523 31.5976 67.9148C31.0214 67.0674 30.0498 66.5096 28.95 66.5096H26.7732V61.8697C26.7732 61.8624 26.7732 61.8554 26.773 61.8481C26.7723 61.8061 26.7139 58.4429 26.388 54.3678C29.9386 53.4869 33.1227 51.484 35.47 48.6528ZM13.9597 36.6358H18.9278C19.659 36.6358 20.2518 36.043 20.2518 35.3118V30.7997H22.3702V35.3118C22.3702 36.043 22.9628 36.6358 23.6941 36.6358H28.6622V38.7542H23.694C23.2532 38.7542 22.8637 38.9705 22.6231 39.3018C22.1834 38.8905 21.7482 38.6878 21.3382 38.5763C20.5955 38.3741 19.873 38.4509 19.2184 38.7872C19.1246 38.7662 19.0277 38.7542 18.9276 38.7542H13.9597V36.6358ZM4.14847 73.0488V69.7092C4.14847 69.4049 4.39597 69.1574 4.70031 69.1574H13.387C14.1184 69.1574 14.711 68.5646 14.711 67.8334C14.711 67.1022 14.1184 66.5094 13.387 66.5094H9.14165L9.35489 60.2445C9.36566 59.9263 9.26151 59.6147 9.06115 59.367C8.98718 59.2756 1.68234 50.0997 2.75758 39.1563C3.13783 35.2863 4.83429 30.3107 8.37144 28.982C8.24187 29.4154 8.05828 29.9402 7.84662 30.5452C6.94472 33.1243 5.70936 36.6567 6.13338 40.0196C7.59329 51.5951 16.0648 53.7657 16.4248 53.8525C16.8172 53.9468 17.231 53.8577 17.5489 53.6094C17.8672 53.3614 18.0549 52.9817 18.0589 52.5783C18.0974 48.6542 18.8494 42.3221 20.3415 41.1931C20.4615 41.1024 20.5221 41.0984 20.6433 41.1314C20.6605 41.136 22.3608 41.7076 23.4477 51.4125C24.0225 56.5459 24.1208 61.6264 24.1254 61.8811V66.5093H18.6833C17.9519 66.5093 17.3593 67.102 17.3593 67.8332C17.3593 68.5644 17.9519 69.1572 18.6833 69.1572H20.3628V73.6007H4.70031C4.39614 73.6007 4.14847 73.3532 4.14847 73.0488ZM24.1252 87.0119H8.55998V76.2486H24.1252V87.0119ZM29.5018 73.0488C29.5018 73.3532 29.2543 73.6007 28.95 73.6007H23.0104V69.1572H28.95C29.2543 69.1572 29.5018 69.4047 29.5018 69.7091V71.3188V71.4391V73.0488ZM37.537 72.6068H33.3174C32.6736 72.6068 32.1498 72.083 32.1498 71.4392V71.319C32.1498 70.6752 32.6736 70.1514 33.3174 70.1514H37.537C38.1808 70.1514 38.7046 70.6752 38.7046 71.319V71.4392C38.7046 72.0829 38.181 72.6068 37.537 72.6068ZM46.7397 72.6068H42.5203C41.8763 72.6068 41.3527 72.083 41.3527 71.4392V71.319C41.3527 70.6752 41.8765 70.1514 42.5203 70.1514H46.7397C47.3835 70.1514 47.9073 70.6752 47.9073 71.319V71.4392C47.9073 72.0829 47.3835 72.6068 46.7397 72.6068ZM57.1102 71.4391C57.1102 72.0829 56.5864 72.6066 55.9426 72.6066H51.723C51.0792 72.6066 50.5554 72.0829 50.5554 71.4391V71.3188C50.5554 70.675 51.0792 70.1513 51.723 70.1513H55.9426C56.5864 70.1513 57.1102 70.675 57.1102 71.3188V71.4391ZM60.4982 73.0488V69.7092C60.4982 69.4049 60.7457 69.1574 61.05 69.1574H64.5508H66.9894V73.6009H61.0498C60.7458 73.6007 60.4982 73.3532 60.4982 73.0488ZM81.44 87.0119H65.8748V76.2486H81.44V87.0119ZM85.8515 73.0488C85.8515 73.3532 85.604 73.6007 85.2997 73.6007H69.6375V69.1572H82.2282H85.2997C85.604 69.1572 85.8515 69.4047 85.8515 69.7091V73.0488Z" fill="#0779FF"/>
<path d="M43.2603 31.5891H48.2247C48.9561 31.5891 49.5487 30.9963 49.5487 30.2651C49.5487 29.534 48.9561 28.9412 48.2247 28.9412H43.2603C42.5289 28.9412 41.9363 29.534 41.9363 30.2651C41.9363 30.9963 42.5289 31.5891 43.2603 31.5891Z" fill="#0779FF"/>
<path d="M43.2603 37.413H48.2247C48.9561 37.413 49.5487 36.8202 49.5487 36.089C49.5487 35.3578 48.9561 34.765 48.2247 34.765H43.2603C42.5289 34.765 41.9363 35.3578 41.9363 36.089C41.9363 36.8202 42.5289 37.413 43.2603 37.413Z" fill="#0779FF"/>
</g>
<defs>
<clipPath id="clip0_21_569">
<rect width="90" height="90" fill="white"/>
</clipPath>
</defs>
</svg>

<svg width="90" height="90" fill="none" xmlns="http://www.w3.org/2000/svg"><g clip-path="url(#a)" fill="#0779FF"><path d="M69.371 34.313a4.71 4.71 0 0 0-4.705-4.705 4.71 4.71 0 0 0-4.706 4.705 4.71 4.71 0 0 0 4.706 4.706 4.71 4.71 0 0 0 4.705-4.706Zm-6.763 0a2.06 2.06 0 0 1 2.058-2.057 2.06 2.06 0 0 1 2.057 2.057 2.06 2.06 0 0 1-2.057 2.058 2.06 2.06 0 0 1-2.058-2.058Z"/><path d="M85.3 66.51h-1.792l-.2-5.88c1.491-1.993 7.63-10.935 6.57-21.733-.333-3.387-1.258-6.247-2.749-8.499-1.252-1.892-2.895-3.282-4.624-3.916a2.683 2.683 0 0 0-.344-.1 1.338 1.338 0 0 0-.08-.1 17.2 17.2 0 0 0-12.838-5.764H51.28v-2.503a3.141 3.141 0 0 0-3.137-3.138h-2.146V1.664a1.324 1.324 0 0 0-2.648 0v13.213h-2.146a3.141 3.141 0 0 0-3.138 3.138v2.502h-9.74a1.324 1.324 0 1 0 0 2.649h40.918c3.844 0 7.526 1.529 10.24 4.223a2.61 2.61 0 0 0-.406 2.301c.149.504.347 1.072.577 1.73.815 2.33 1.932 5.523 1.586 8.268-.872 6.913-4.568 9.824-6.72 10.951a52.332 52.332 0 0 0-.33-3.687 36.091 36.091 0 0 0-.22-1.483 4.682 4.682 0 0 0 1.686.313 4.71 4.71 0 0 0 4.706-4.705 4.711 4.711 0 0 0-4.706-4.706 4.711 4.711 0 0 0-4.296 2.79 5.572 5.572 0 0 0-.103-.08c-.77-.582-1.668-.757-2.595-.505-1.603.437-3.591 2.258-4.743 12.559l-.008.078a14.489 14.489 0 0 1-6.207-4.69 1.324 1.324 0 0 0-1.051-.518h-21.82c-.412 0-.8.192-1.051.519a14.54 14.54 0 0 1-7.64 5.168l-.061-.557c-.306-2.733-.67-4.87-1.07-6.54a1.64 1.64 0 0 0 .007-.14v-3.053h4.968c.732 0 1.324-.593 1.324-1.324v-4.766c0-.731-.592-1.324-1.324-1.324h-4.968v-4.512c0-.731-.593-1.324-1.324-1.324h-4.766c-.732 0-1.324.593-1.324 1.324v4.512h-4.968c-.732 0-1.324.593-1.324 1.324v4.766c0 .731.592 1.324 1.324 1.324h4.479c-.485 1.162-.967 2.904-1.304 5.55a52.441 52.441 0 0 0-.33 3.686c-2.155-1.128-5.849-4.04-6.72-10.95-.346-2.745.77-5.938 1.586-8.269.23-.657.428-1.225.577-1.729.116-.396.136-.802.07-1.19 2.772-3.398 6.834-5.334 11.248-5.334h.787a1.324 1.324 0 1 0 0-2.648h-.787c-4.98 0-9.745 2.2-12.99 5.942a2.624 2.624 0 0 0-1.757.022c-1.729.634-3.371 2.024-4.624 3.916-1.49 2.253-2.415 5.112-2.748 8.5C-.938 49.694 5.2 58.636 6.693 60.63l-.2 5.88H4.7a3.203 3.203 0 0 0-3.2 3.2v3.339c0 1.764 1.436 3.2 3.2 3.2h1.212v12.087c0 .731.592 1.324 1.324 1.324h18.213c.731 0 1.324-.593 1.324-1.324V76.249h2.177c1.1 0 2.071-.558 2.647-1.406a3.792 3.792 0 0 0 1.72.412h4.22c.952 0 1.822-.352 2.492-.93a3.8 3.8 0 0 0 2.491.93h4.22a3.8 3.8 0 0 0 2.491-.93c.67.578 1.54.93 2.492.93h4.22c.846 0 1.63-.278 2.263-.747a3.201 3.201 0 0 0 2.844 1.74h2.177v12.088c0 .731.593 1.324 1.324 1.324h18.213c.732 0 1.324-.593 1.324-1.324V76.249H85.3c1.764 0 3.2-1.436 3.2-3.2v-3.34c0-1.764-1.436-3.2-3.2-3.2ZM40.713 20.516v-2.502c0-.27.22-.49.49-.49h6.94c.27 0 .49.22.49.49v2.503h-7.92Zm39.634 8.799 1.268-.381v.006l-1.268.375Zm-4.69 9.703a2.06 2.06 0 0 1 2.057 2.058 2.06 2.06 0 0 1-2.058 2.058 2.06 2.06 0 0 1-2.058-2.058 2.06 2.06 0 0 1 2.058-2.058ZM65.875 61.88c.004-.26.102-5.322.676-10.452 1.086-9.72 2.789-10.293 2.806-10.298.12-.033.181-.029.301.062 1.35 1.02 2.235 6.704 2.283 11.386a1.323 1.323 0 0 0 1.634 1.273c.36-.086 8.832-2.257 10.292-13.832.423-3.363-.812-6.896-1.714-9.475a39.106 39.106 0 0 1-.525-1.564c3.535 1.323 5.234 6.302 5.614 10.175 1.072 10.91-6.23 20.12-6.303 20.21-.2.248-.305.56-.294.878l.213 6.265H65.875V61.88ZM35.47 48.653h20.545a17.103 17.103 0 0 0 7.632 5.284c-.357 4.266-.42 7.867-.42 7.911v4.662H61.05a3.2 3.2 0 0 0-2.844 1.74 3.795 3.795 0 0 0-2.264-.746h-4.22c-.95 0-1.822.35-2.49.93a3.798 3.798 0 0 0-2.492-.93h-4.22c-.952 0-1.822.35-2.491.93a3.798 3.798 0 0 0-2.492-.93h-4.22a3.79 3.79 0 0 0-1.72.41 3.199 3.199 0 0 0-2.647-1.404h-2.177v-4.662c0-.042-.06-3.405-.385-7.48a17.179 17.179 0 0 0 9.082-5.715ZM13.96 36.636h4.968c.731 0 1.324-.593 1.324-1.324V30.8h2.118v4.512c0 .731.593 1.324 1.324 1.324h4.968v2.118h-4.968c-.44 0-.83.217-1.07.548a2.969 2.969 0 0 0-1.286-.726 2.88 2.88 0 0 0-2.12.211 1.327 1.327 0 0 0-.29-.033H13.96v-2.118ZM4.148 73.049v-3.34c0-.304.248-.552.552-.552h8.687a1.324 1.324 0 1 0 0-2.648H9.142l.213-6.264c.01-.319-.093-.63-.294-.878-.074-.091-7.379-9.267-6.303-20.21.38-3.87 2.076-8.846 5.613-10.175-.13.433-.313.958-.524 1.563-.902 2.58-2.138 6.112-1.714 9.475 1.46 11.575 9.932 13.746 10.292 13.832a1.323 1.323 0 0 0 1.634-1.274c.038-3.924.79-10.256 2.282-11.385.12-.09.181-.095.302-.062.017.005 1.718.577 2.805 10.282.575 5.133.673 10.213.677 10.468v4.628h-5.442a1.324 1.324 0 1 0 0 2.648h1.68v4.444H4.7a.553.553 0 0 1-.552-.552Zm19.977 13.963H8.56V76.249h15.565v10.763Zm5.377-13.963a.552.552 0 0 1-.552.552h-5.94v-4.444h5.94c.304 0 .552.248.552.552v3.34Zm8.035-.442h-4.22a1.169 1.169 0 0 1-1.167-1.168v-.12a1.17 1.17 0 0 1 1.167-1.168h4.22a1.17 1.17 0 0 1 1.168 1.168v.12a1.17 1.17 0 0 1-1.168 1.168Zm9.203 0h-4.22a1.169 1.169 0 0 1-1.167-1.168v-.12c0-.644.523-1.168 1.167-1.168h4.22a1.17 1.17 0 0 1 1.167 1.168v.12c0 .644-.523 1.168-1.167 1.168Zm10.37-1.168a1.17 1.17 0 0 1-1.167 1.168h-4.22a1.169 1.169 0 0 1-1.168-1.168v-.12a1.17 1.17 0 0 1 1.168-1.168h4.22a1.17 1.17 0 0 1 1.167 1.168v.12Zm3.388 1.61v-3.34c0-.304.248-.552.552-.552h5.94v4.444h-5.94a.553.553 0 0 1-.552-.552ZM81.44 87.012H65.875V76.249H81.44v10.763Zm4.412-13.963a.552.552 0 0 1-.552.552H69.638v-4.444H85.3c.304 0 .552.248.552.552v3.34Z"/><path d="M43.26 31.59h4.965a1.324 1.324 0 1 0 0-2.649H43.26a1.324 1.324 0 1 0 0 2.648Zm0 5.823h4.965a1.324 1.324 0 1 0 0-2.648H43.26a1.324 1.324 0 1 0 0 2.648Z"/></g><defs><clipPath id="a"><path fill="#fff" d="M0 0h90v90H0z"/></clipPath></defs></svg>
